contributed-vectors/medibang_paint.svg

<svg xmlns="http://www.w3.org/2000/svg" xml:space="preserve" style="fill-rule:evenodd;clip-rule:evenodd;stroke-linejoin:round;stroke-miterlimit:2" viewBox="0 0 192 192"><path d="M164.5 21.5c0-5.519-4.481-10-10-10h-133c-5.519 0-10 4.481-10 10v133c0 5.519 4.481 10 10 10h133c5.519 0 10-4.481 10-10v-133Z" style="fill:#fff" transform="translate(8 8)"/><path d="M100.997 40.751c-3.883 6.873-9.305 26.83-9.305 59.02 0 23.483 3.326 42.549 7.424 42.549 4.098 0 7.425-19.066 7.425-42.549 0-32.19-7.568-34.393-5.544-59.02Z" style="fill:#98dc9a" transform="matrix(5.73055 0 0 1 -472.288 0)"/><path d="M59.514 122.145a42.325 42.325 0 0 1-6.359-22.374c0-32.19 31.076-52.147 53.328-59.02-7.678 16.302 8.729 22.778 20.7 34.63 0 0-2.465 70.672-67.669 46.764" style="fill:#9abeff"/><path d="M54.395 88.857c5.992-25.817 32.469-42.047 52.088-48.106-4.839 10.274-.111 16.646 7.044 22.92 0 0-18.811 43.258-59.132 25.186" style="fill:#ff837d"/></svg>

<?xml version="1.0" encoding="UTF-8" standalone="no"?>
<!DOCTYPE svg PUBLIC "-//W3C//DTD SVG 1.1//EN" "http://www.w3.org/Graphics/SVG/1.1/DTD/svg11.dtd">
<svg width="100%" height="100%" viewBox="0 0 192 192" version="1.1" xmlns="http://www.w3.org/2000/svg" xmlns:xlink="http://www.w3.org/1999/xlink" xml:space="preserve" xmlns:serif="http://www.serif.com/" style="fill-rule:evenodd;clip-rule:evenodd;stroke-linejoin:round;stroke-miterlimit:2;">
    <g id="Layer1">
        <g transform="matrix(1,0,0,1,8,8)">
            <path d="M164.5,21.5C164.5,15.981 160.019,11.5 154.5,11.5L21.5,11.5C15.981,11.5 11.5,15.981 11.5,21.5L11.5,154.5C11.5,160.019 15.981,164.5 21.5,164.5L154.5,164.5C160.019,164.5 164.5,160.019 164.5,154.5L164.5,21.5Z" style="fill:white;"/>
        </g>
        <g transform="matrix(5.73055,0,0,1,-472.288,0)">
            <path d="M100.997,40.751C97.114,47.624 91.692,67.581 91.692,99.771C91.692,123.254 95.018,142.32 99.116,142.32C103.214,142.32 106.541,123.254 106.541,99.771C106.541,67.581 98.973,65.378 100.997,40.751Z" style="fill:rgb(152,220,154);"/>
        </g>
        <path d="M59.514,122.145C55.483,115.643 53.155,107.977 53.155,99.771C53.155,67.581 84.231,47.624 106.483,40.751C98.805,57.053 115.212,63.529 127.183,75.381C127.183,75.381 124.718,146.053 59.514,122.145" style="fill:rgb(154,190,255);"/>
        <path d="M54.395,88.857C60.387,63.04 86.864,46.81 106.483,40.751C101.644,51.025 106.372,57.397 113.527,63.671C113.527,63.671 94.716,106.929 54.395,88.857" style="fill:rgb(255,131,125);"/>
    </g>
</svg>
